X:1
T: The Waters of Bannockburn
C:Tony Wright
R:Jig
Q:180
K:Dm
M:6/8
L:1/16
|:f2z2f2 f2e2d2|e2z2d2 c2z2A2|B2A2B2 G2c2B2|A2G2F2 F2A2c2|
f2z2f2 f2e2d2|e2z2d2 c2z2A2|B2A2B2 G2c2E2|1F2z2A2 F2A2c2:|2F2z2A2 G2F2E2|
|:D2z2ED F2z2G2|A2z2GA d2z2A2|D2z2D2 F2z2A2|G2A2G2 E2D2C2|
D2z2ED F2z2G2|A2G2A2 d2z2e2|f2e2d2 e2z2^c2|1d6 A2G2E2:|2d6 d6||
